X: 38
T: SLIDES: Denny Mescall's Set
T: Bank of Turf
C: C: Trad. / Trad. / Mike Scott; S: Various
C: Set Leaders: Mars, Anton
Z: Mars Agliullin ed., Anton Zille ed.; Mars at The Session
N: https://thesession.org/members/26966/sets/94265
R: Single Jig
M: 12/8
L: 1/8
Q: 3/8=130
K: Dmaj
d2 B|:ABA DFA BAF DFA|dcd ede ~f3 def|
~g3 gab afd Bcd|1 efe e2d cBA Bcd:|2 ABA efe d3 dcd||
|:e2A efg f2d fga|gfe fed edB ABd|
eAA efg fdd fga|1 gfe dcB A3 ABd:|2 gfe dcB AFA Bcd||
T: Denny Mescall's
R: Slide
K: Gmaj
|:B3 BAB dBA G3|GBd g2e d2B A2G|
B3 BAB dBA G2B|ded cBA G3 G3:||
|:g2g gfe d2B c2d|e2a a2b a2g e2f|
g2g gfe d2B c2d|efg fgf g3 g3:||
T: Kings of Kerry
R: Slide
K: Amaj
c3 cBA F2A E2A|F2A E2c B3 BAB|
c3 cBA F2A E2f|1 ecA BcB A3 A2B:|2 ecA BcB A3 Ace||
a3 afe f2a e2A|c3 cBA B3 Bce|
a3 afe f2a e2f|ecA BcB A3 Ace|
a3 afe f2a e2A|c3 cBA B3 BAB|
c3 cBA F2A E2f|ecA BcB A3 A3||

